icons/scalable/actions/edit-description.svg

<?xml version="1.0" encoding="UTF-8"?>
<!DOCTYPE svg PUBLIC "-//W3C//DTD SVG 1.1//EN" "http://www.w3.org/Graphics/SVG/1.1/DTD/svg11.dtd"
[
  <!ENTITY fill_color "#FFFFFF">
  <!ENTITY stroke_color "#A0A0A0">
]>
<svg version="1.1" xmlns="http://www.w3.org/2000/svg" xmlns:xlink="http://www.w3.org/1999/xlink" x="0px" y="0px" width="55px" height="55px" viewBox="0px, 0px, 55px, 55px">
  <g id="edit-description">
    <path d="M19.849,50.763 C16.351,50.757 12.578,50.766 12.578,50.766 C12.578,50.766 12.016,50.75 11.391,50.359 C10.766,49.969 10.75,49.109 10.75,49.109 C10.75,49.109 10.767,46.339 10.768,43.613 C9.035,43.557 7.983,43.622 6.656,42.516 C6.656,42.516 5.985,41.844 6.078,41.062 C6.172,40.281 6.953,39.691 6.953,39.691 C8.243,39.106 9.485,40.004 10.769,40.088 L10.768,43.613 C13.038,43.782 16.125,43.625 17.297,42.531 C17.297,42.531 17.864,42.023 17.918,41.439 C17.972,40.855 17.719,40.359 17.719,40.359 C17.719,40.359 17.348,39.868 17.094,39.734 C16.84,39.6 16.337,39.441 15.594,39.656 C14.851,39.871 14.172,40.125 12.782,40.172 C11.391,40.219 10.769,40.088 10.769,40.088 L10.771,30.37 C9.037,30.314 7.984,30.435 6.656,29.328 C6.656,29.328 6.091,28.813 6.11,27.906 C6.129,26.999 6.746,26.4 7.604,26.277 C8.462,26.155 9.435,26.663 10.771,26.845 L10.771,30.37 C12.22,30.428 14.936,30.415 16.299,29.835 C17.569,29.296 17.646,29.017 17.867,28.54 C18.089,28.063 17.663,27.058 17.441,26.836 C17.22,26.615 16.64,26.172 15.959,26.308 C15.277,26.444 14.817,26.751 13.215,26.887 C11.614,27.024 10.771,26.845 10.771,26.845 L10.773,16.842 C9.039,16.786 7.969,16.811 6.641,15.703 C6.641,15.703 5.969,15.094 6.078,14.281 C6.188,13.469 6.953,12.92 6.953,12.92 C8.244,12.334 9.488,13.232 10.774,13.317 L10.773,16.842 C12.296,16.891 16.078,16.443 16.674,16.17 C17.271,15.897 17.611,15.727 17.85,15.079 C18.089,14.432 17.884,13.819 17.646,13.478 C17.407,13.137 16.743,12.66 16.112,12.711 C15.482,12.762 14.664,13.12 13.386,13.29 C12.108,13.461 10.774,13.317 10.774,13.317 C10.74,10.6 10.775,6.424 10.797,5.625 C10.819,4.826 11.653,4.281 12.397,4.25 C13.141,4.219 19.849,4.25 19.849,4.25 L19.849,50.763 z" stroke="none" fill="&fill_color;"/>
    <path d="M37.539,50.772 L33.089,50.776 L23.815,50.769 L23.815,4.25 L41.993,4.25 C45.161,4.256 47.676,6.6 48.091,9.837 C44.391,14.527 42.021,17.643 38.267,22.561 C37.445,23.637 33.901,27.981 33.237,29.13 C32.572,30.279 30.721,35.315 29.512,38.128 C29.177,38.9 29.395,39.856 30.087,40.428 C31.004,40.961 31.524,40.868 31.887,40.825 C32.25,40.781 34.33,39.263 35.526,38.479 C37.099,37.449 38.952,36.632 40.38,35.399 C41.683,34.273 46.638,27.29 47.957,25.754 L48.087,25.587 L48.087,44.656 C48.09,48.043 45.921,50.777 43.001,50.779 z" stroke="none" fill="&fill_color;"/>
    <path d="M52.796,13.98 C52.806,13.97 52.851,13.898 52.851,13.898 C52.893,13.827 52.92,13.743 52.92,13.651 C52.92,13.624 52.925,13.594 52.92,13.568 C52.881,13.233 52.598,12.832 52.192,12.511 C51.786,12.191 51.33,12.018 50.997,12.058 C50.854,12.076 50.654,12.222 50.654,12.222 L36.078,30.999 L34.517,34.851 C34.497,34.897 34.509,34.949 34.548,34.981 C34.587,35.012 34.64,35.017 34.682,34.989 L38.122,32.776 z" stroke="none" fill="&fill_color;"/>
  </g>
  <defs/>
</svg>

<?xml version="1.0" encoding="UTF-8"?>
<!DOCTYPE svg PUBLIC "-//W3C//DTD SVG 1.1//EN" "http://www.w3.org/Graphics/SVG/1.1/DTD/svg11.dtd"
[
  <!ENTITY fill_color "#FFFFFF">
  <!ENTITY stroke_color "#A0A0A0">
]>
<svg version="1.2" xmlns="http://www.w3.org/2000/svg" xmlns:xlink="http://www.w3.org/1999/xlink" x="0" y="0" width="55" height="55" viewBox="0, 0, 55, 55">
	<g id="edit-description">
		<path fill="&fill_color;" stroke="none" d="m19.8 50.8c-3.4 0-7.2 0-7.2 0 0 0-0.6 0-1.2-0.4-0.6-0.4-0.7-1.3-0.7-1.3 0 0 0.1-2.8 0.1-5.5-1.8 0-2.8 0-4.1-1.1 0 0-0.7-0.7-0.6-1.4 0.1-0.8 0.9-1.4 0.9-1.4 1.2-0.6 2.5 0.3 3.8 0.4v3.5c2.2 0.2 5.3 0 6.5-1.1 0 0 0.6-0.5 0.6-1.1 0.1-0.5-0.2-1-0.2-1 0 0-0.4-0.5-0.6-0.7-0.3-0.1-0.8-0.3-1.5 0-0.7 0.2-1.4 0.4-2.8 0.5-1.4 0-2-0.1-2-0.1v-9.7c-1.8-0.1-2.8 0-4.1-1.1 0 0-0.6-0.5-0.6-1.4 0-0.9 0.6-1.5 1.5-1.6 0.9-0.1 1.8 0.4 3.2 0.5v3.6c1.4 0 4.1 0 5.5-0.6 1.3-0.5 1.3-0.8 1.6-1.3 0.2-0.4-0.2-1.4-0.5-1.7-0.2-0.2-0.8-0.6-1.4-0.5-0.7 0.1-1.2 0.5-2.8 0.6-1.6 0.1-2.4-0.1-2.4-0.1v-10c-1.8 0-2.8 0-4.2-1.1 0 0-0.6-0.6-0.5-1.4 0.1-0.8 0.9-1.4 0.9-1.4 1.2-0.6 2.5 0.3 3.8 0.4v3.5c1.5 0.1 5.3-0.4 5.9-0.6 0.6-0.3 0.9-0.5 1.1-1.1 0.3-0.7 0.1-1.3-0.2-1.6-0.2-0.4-0.9-0.8-1.5-0.8-0.6 0.1-1.4 0.4-2.7 0.6-1.3 0.2-2.6 0-2.6 0-0.1-2.7 0-6.9 0-7.7 0-0.8 0.9-1.3 1.6-1.3 0.7-0.1 7.4 0 7.4 0z"/>
		<path fill="&fill_color;" stroke="none" d="m37.5 50.8h-4.4-9.3v-46.5h18.2c3.2 0 5.7 2.3 6.1 5.5-3.7 4.7-6.1 7.8-9.8 12.8-0.9 1-4.4 5.4-5.1 6.5-0.6 1.2-2.5 6.2-3.7 9-0.3 0.8-0.1 1.8 0.6 2.3 0.9 0.6 1.4 0.5 1.8 0.4 0.4 0 2.4-1.5 3.6-2.3 1.6-1.1 3.5-1.9 4.9-3.1 1.3-1.1 6.2-8.1 7.6-9.6l0.1-0.2v19.1c0 3.3-2.2 6.1-5.1 6.1z"/>
		<path fill="&fill_color;" stroke="none" d="m52.8 14c0 0 0.1-0.1 0.1-0.1q0-0.1 0-0.2 0-0.1 0-0.1c0-0.4-0.3-0.8-0.7-1.1-0.4-0.3-0.9-0.5-1.2-0.4-0.1 0-0.3 0.1-0.3 0.1l-14.6 18.8-1.6 3.9q0 0 0 0.1 0.1 0 0.2 0l3.4-2.2z"/>
	</g>
	<defs/>
</svg>
